X:725
T:Boys of School Hill
O:england
C:unknown
N:Bastardised version of the Boys of Blue Hill/ Oakhill, as played by Will Duke and others January 1999
M:4/4
L:1/8
K:D
|:d3/2B/2|A2f2e2d2| (3BBB B3/2A/2 B2d3/2e/2|f3/2a/2g3/2f/2 e3/2g/2f3/2e/2|
d3/2f/2e3/2d/2 f3/2e/2d3/2B/2|A2f2e2d2| (3BBB B3/2A/2 B2d3/2e/2|f3/2a/2g3/2f/2 e3/2g/2f3/2e/2|
d2d2d2:|
|:f3/2g/2|a3/2f/2d3/2f/2 a2g3/2f/2|e3/2f/2g3/2a/2 b2a3/2g/2|f3/2a/2g3/2f/2 e3/2g/2f3/2e/2|
d3/2f/2e3/2d/2 f3/2e/2d3/2B/2|A2f2e2d2| (3BBB B3/2A/2 B2d3/2e/2|f3/2a/2g3/2f/2 e3/2g/2f3/2e/2|
d2d2d2:|


